X: 9433
T: Danny Green's
R: polka
M: 2/4
K: Dmajor
|:A2 AF/A/|B2 Bc/B/|A>B cd|ed c/d/c/B/|
A2 AF/A/|B2 Bc/B/|A>B cd|ed d2:|
|:f2 fg/f/|e2 ef/e/|d>c Bc|BA F/G/A/d/|
f2 fg/f/|e2 ef/e/|d>c Bc|ed d2:|

